X: 19876
T: Jewels Of The Ocean, The
R: waltz
M: 3/4
K: Gmajor
DE|:G2GB AB|GE D2 DE|G2GA Bd|c4 Bc|d2d B GA|B2B A GB|
A2A B AG|EA GE DE|G2G B AB|GED2 DE|G2G A Bd|c4 Bc|
d2d B GA|B2B A GB|AG EA DE|1 G3 E DE:|2 G3 A AB||
c2c d cA|c3d cA|B2B d cA|B3c (3BAG|A2A B AG|A2A B AG|
E2E A GA|EA GE D2|c2c d cA|c3d cA|B2B d cA|B3c (3BAG|
A2A G AB|d3B dB|dB AG ED|1 G3 A AB:|2 G3E DE||

